assets/icons/shopbutton.svg

<svg width="168" height="56" viewBox="0 0 168 56" fill="none" xmlns="http://www.w3.org/2000/svg">
<rect width="168" height="56" rx="28" fill="url(#paint0_linear_6606_844)"/>
<rect x="1" y="1" width="166" height="54" rx="27" stroke="url(#paint1_linear_6606_844)" stroke-width="2"/>
<rect x="4.5" y="4.5" width="159" height="47" rx="23.5" fill="url(#paint2_linear_6606_844)" stroke="#320033"/>
<g style="mix-blend-mode:overlay">
<rect x="11.4545" y="7" width="145.091" height="28" rx="14" fill="url(#paint3_linear_6606_844)"/>
</g>
<path d="M71.233 25.8523C71.1951 25.4356 71.0265 25.1117 70.7273 24.8807C70.4318 24.6458 70.0095 24.5284 69.4602 24.5284C69.0966 24.5284 68.7936 24.5758 68.5511 24.6705C68.3087 24.7652 68.1269 24.8958 68.0057 25.0625C67.8845 25.2254 67.822 25.4129 67.8182 25.625C67.8106 25.7992 67.8447 25.9527 67.9205 26.0852C68 26.2178 68.1136 26.3352 68.2614 26.4375C68.4129 26.536 68.5947 26.6231 68.8068 26.6989C69.0189 26.7746 69.2576 26.8409 69.5227 26.8977L70.5227 27.125C71.0985 27.25 71.6061 27.4167 72.0455 27.625C72.4886 27.8333 72.8598 28.0814 73.1591 28.3693C73.4621 28.6572 73.6913 28.9886 73.8466 29.3636C74.0019 29.7386 74.0814 30.1591 74.0852 30.625C74.0814 31.3598 73.8958 31.9905 73.5284 32.517C73.161 33.0436 72.6326 33.447 71.9432 33.7273C71.2576 34.0076 70.4299 34.1477 69.4602 34.1477C68.4867 34.1477 67.6383 34.0019 66.9148 33.7102C66.1913 33.4186 65.6288 32.9754 65.2273 32.3807C64.8258 31.786 64.6193 31.0341 64.608 30.125H67.3011C67.3239 30.5 67.4242 30.8125 67.6023 31.0625C67.7803 31.3125 68.0246 31.5019 68.3352 31.6307C68.6496 31.7595 69.0133 31.8239 69.4261 31.8239C69.8049 31.8239 70.1269 31.7727 70.392 31.6705C70.661 31.5682 70.8674 31.4261 71.0114 31.2443C71.1553 31.0625 71.2292 30.8542 71.233 30.6193C71.2292 30.3996 71.161 30.2121 71.0284 30.0568C70.8958 29.8977 70.6913 29.7614 70.4148 29.6477C70.142 29.5303 69.7936 29.4223 69.3693 29.3239L68.1534 29.0398C67.1458 28.8087 66.3523 28.4356 65.7727 27.9205C65.1932 27.4015 64.9053 26.7008 64.9091 25.8182C64.9053 25.0985 65.0985 24.4678 65.4886 23.9261C65.8788 23.3845 66.4186 22.9621 67.108 22.6591C67.7973 22.3561 68.5833 22.2045 69.4659 22.2045C70.3674 22.2045 71.1496 22.358 71.8125 22.6648C72.4792 22.9678 72.9962 23.3939 73.3636 23.9432C73.7311 24.4924 73.9186 25.1288 73.9261 25.8523H71.233ZM78.2841 29.0227V34H75.5057V22.3636H78.1932V26.875H78.2898C78.4867 26.3371 78.8087 25.9167 79.2557 25.6136C79.7064 25.3106 80.2576 25.1591 80.9091 25.1591C81.5227 25.1591 82.0568 25.2955 82.5114 25.5682C82.9659 25.8371 83.3182 26.2178 83.5682 26.7102C83.822 27.2027 83.947 27.7784 83.9432 28.4375V34H81.1648V28.983C81.1686 28.4981 81.0473 28.1193 80.8011 27.8466C80.5549 27.5739 80.2083 27.4375 79.7614 27.4375C79.4697 27.4375 79.2121 27.5019 78.9886 27.6307C78.7689 27.7557 78.5966 27.9356 78.4716 28.1705C78.3504 28.4053 78.2879 28.6894 78.2841 29.0227ZM89.7514 34.1648C88.8348 34.1648 88.0469 33.9773 87.3878 33.6023C86.7325 33.2235 86.2268 32.697 85.8707 32.0227C85.5185 31.3447 85.3423 30.5587 85.3423 29.6648C85.3423 28.767 85.5185 27.9811 85.8707 27.3068C86.2268 26.6288 86.7325 26.1023 87.3878 25.7273C88.0469 25.3485 88.8348 25.1591 89.7514 25.1591C90.6681 25.1591 91.4541 25.3485 92.1094 25.7273C92.7685 26.1023 93.2741 26.6288 93.6264 27.3068C93.9825 27.9811 94.1605 28.767 94.1605 29.6648C94.1605 30.5587 93.9825 31.3447 93.6264 32.0227C93.2741 32.697 92.7685 33.2235 92.1094 33.6023C91.4541 33.9773 90.6681 34.1648 89.7514 34.1648ZM89.7685 32.0682C90.1018 32.0682 90.384 31.9659 90.6151 31.7614C90.8461 31.5568 91.0223 31.2727 91.1435 30.9091C91.2685 30.5455 91.331 30.125 91.331 29.6477C91.331 29.1629 91.2685 28.7386 91.1435 28.375C91.0223 28.0114 90.8461 27.7273 90.6151 27.5227C90.384 27.3182 90.1018 27.2159 89.7685 27.2159C89.4238 27.2159 89.1321 27.3182 88.8935 27.5227C88.6586 27.7273 88.4787 28.0114 88.3537 28.375C88.2325 28.7386 88.1719 29.1629 88.1719 29.6477C88.1719 30.125 88.2325 30.5455 88.3537 30.9091C88.4787 31.2727 88.6586 31.5568 88.8935 31.7614C89.1321 31.9659 89.4238 32.0682 89.7685 32.0682ZM95.5838 37.2727V25.2727H98.3338V26.767H98.419C98.5327 26.5019 98.6937 26.2462 98.902 26C99.1141 25.7538 99.383 25.553 99.7088 25.3977C100.038 25.2386 100.432 25.1591 100.891 25.1591C101.497 25.1591 102.063 25.3182 102.589 25.6364C103.12 25.9545 103.548 26.4451 103.874 27.108C104.199 27.7708 104.362 28.6155 104.362 29.642C104.362 30.6307 104.205 31.4583 103.891 32.125C103.58 32.7917 103.16 33.2917 102.629 33.625C102.103 33.9583 101.518 34.125 100.874 34.125C100.434 34.125 100.054 34.053 99.7315 33.9091C99.4096 33.7652 99.1387 33.5758 98.919 33.3409C98.7031 33.1061 98.5365 32.8542 98.419 32.5852H98.3622V37.2727H95.5838ZM98.3054 29.6364C98.3054 30.1061 98.3679 30.5152 98.4929 30.8636C98.6217 31.2121 98.8054 31.483 99.044 31.6761C99.2865 31.8655 99.5762 31.9602 99.9134 31.9602C100.254 31.9602 100.544 31.8655 100.783 31.6761C101.021 31.483 101.201 31.2121 101.322 30.8636C101.447 30.5152 101.51 30.1061 101.51 29.6364C101.51 29.1667 101.447 28.7595 101.322 28.4148C101.201 28.0701 101.021 27.803 100.783 27.6136C100.548 27.4242 100.258 27.3295 99.9134 27.3295C99.5724 27.3295 99.2827 27.4223 99.044 27.608C98.8054 27.7936 98.6217 28.0587 98.4929 28.4034C98.3679 28.7481 98.3054 29.1591 98.3054 29.6364Z" fill="white"/>
<defs>
<linearGradient id="paint0_linear_6606_844" x1="84" y1="0" x2="84" y2="56" gradientUnits="userSpaceOnUse">
<stop stop-color="#FFEB3C"/>
<stop offset="0.135" stop-color="#FF730E"/>
<stop offset="0.425" stop-color="#B3330A"/>
<stop offset="0.66" stop-color="#FFE600"/>
<stop offset="1" stop-color="#FF730E"/>
</linearGradient>
<linearGradient id="paint1_linear_6606_844" x1="84" y1="0" x2="84" y2="56" gradientUnits="userSpaceOnUse">
<stop stop-color="#FF730E"/>
<stop offset="0.295" stop-color="#C03900"/>
<stop offset="0.525" stop-color="#DBFF00"/>
<stop offset="0.97" stop-color="#CE7C00"/>
</linearGradient>
<linearGradient id="paint2_linear_6606_844" x1="84" y1="4" x2="84" y2="52" gradientUnits="userSpaceOnUse">
<stop stop-color="#277DFF"/>
<stop offset="0.395" stop-color="#154CB7"/>
<stop offset="0.78" stop-color="#061072"/>
<stop offset="1" stop-color="#02408A"/>
</linearGradient>
<linearGradient id="paint3_linear_6606_844" x1="84" y1="7" x2="84" y2="35" gradientUnits="userSpaceOnUse">
<stop stop-color="white"/>
<stop offset="1" stop-color="white" stop-opacity="0"/>
</linearGradient>
</defs>
</svg>

<svg xmlns="http://www.w3.org/2000/svg" width="168" height="56" fill="none" xmlns:v="https://vecta.io/nano"><rect width="168" height="56" rx="28" fill="url(#A)"/><rect x="1" y="1" width="166" height="54" rx="27" stroke="url(#B)" stroke-width="2"/><rect x="4.5" y="4.5" width="159" height="47" rx="23.5" fill="url(#C)" stroke="#320033"/><rect x="11.455" y="7" width="145.091" height="28" rx="14" fill="url(#D)" style="mix-blend-mode:overlay"/><path d="M71.233 25.852c-.038-.417-.207-.741-.506-.972s-.718-.352-1.267-.352c-.364 0-.667.047-.909.142s-.424.225-.545.392-.184.35-.187.563c-.008.174.026.328.102.46s.193.25.341.352.333.186.545.261.451.142.716.199l1 .227c.576.125 1.083.292 1.523.5s.814.456 1.114.744a2.88 2.88 0 0 1 .688.994c.155.375.235.795.239 1.261-.004.735-.189 1.366-.557 1.892s-.896.93-1.585 1.21-1.513.42-2.483.42-1.822-.146-2.545-.437-1.286-.735-1.687-1.33-.608-1.347-.619-2.256h2.693c.023.375.123.688.301.938a1.65 1.65 0 0 0 .733.568c.314.129.678.193 1.091.193.379 0 .701-.051.966-.153s.475-.244.619-.426.218-.39.222-.625a.86.86 0 0 0-.205-.562c-.133-.159-.337-.295-.614-.409s-.621-.225-1.046-.324l-1.216-.284c-1.008-.231-1.801-.604-2.381-1.119s-.867-1.22-.864-2.102c-.004-.72.189-1.35.58-1.892s.93-.964 1.619-1.267 1.475-.455 2.358-.455c.901 0 1.684.154 2.347.46s1.184.729 1.551 1.278.555 1.186.563 1.909h-2.693zm7.051 3.17V34h-2.778V22.364h2.688v4.511h.097c.197-.538.519-.958.966-1.261s1.002-.455 1.653-.455c.614 0 1.148.136 1.602.409a2.73 2.73 0 0 1 1.057 1.142c.254.492.379 1.068.375 1.727V34h-2.778v-5.017c.004-.485-.117-.864-.364-1.136s-.593-.409-1.04-.409a1.52 1.52 0 0 0-.773.193c-.22.125-.392.305-.517.54s-.184.519-.187.852zm11.467 5.142c-.917 0-1.705-.187-2.364-.562a3.88 3.88 0 0 1-1.517-1.58c-.352-.678-.528-1.464-.528-2.358s.176-1.684.528-2.358.862-1.204 1.517-1.579 1.447-.568 2.364-.568 1.703.189 2.358.568a3.79 3.79 0 0 1 1.517 1.579c.356.674.534 1.46.534 2.358s-.178 1.68-.534 2.358-.858 1.201-1.517 1.58-1.441.563-2.358.563zm.017-2.097c.333 0 .615-.102.847-.307s.407-.489.528-.852.188-.784.188-1.261c0-.485-.062-.909-.187-1.273s-.297-.648-.528-.852-.513-.307-.847-.307c-.345 0-.636.102-.875.307s-.415.489-.54.852-.182.788-.182 1.273c0 .477.061.898.182 1.261s.305.648.54.852.53.307.875.307zm5.815 5.205v-12h2.75v1.494h.085c.114-.265.275-.521.483-.767s.481-.447.807-.602.723-.239 1.182-.239c.606 0 1.172.159 1.698.477.531.318.959.809 1.285 1.472s.488 1.508.488 2.534c0 .989-.157 1.816-.471 2.483s-.731 1.167-1.262 1.5a3.21 3.21 0 0 1-1.755.5c-.44 0-.82-.072-1.142-.216s-.593-.333-.812-.568a2.73 2.73 0 0 1-.5-.756h-.057v4.688h-2.778zm2.722-7.636c0 .47.063.879.188 1.227s.313.619.551.813a1.37 1.37 0 0 0 .869.284c.341 0 .631-.095.87-.284s.418-.464.539-.812.188-.758.188-1.227-.063-.877-.188-1.222-.301-.612-.539-.801-.525-.284-.87-.284-.631.093-.869.279-.422.451-.551.795-.187.756-.187 1.233z" fill="#fff"/><defs><linearGradient id="A" x1="84" y1="0" x2="84" y2="56" gradientUnits="userSpaceOnUse"><stop stop-color="#ffeb3c"/><stop offset=".135" stop-color="#ff730e"/><stop offset=".425" stop-color="#b3330a"/><stop offset=".66" stop-color="#ffe600"/><stop offset="1" stop-color="#ff730e"/></linearGradient><linearGradient id="B" x1="84" y1="0" x2="84" y2="56" gradientUnits="userSpaceOnUse"><stop stop-color="#ff730e"/><stop offset=".295" stop-color="#c03900"/><stop offset=".525" stop-color="#dbff00"/><stop offset=".97" stop-color="#ce7c00"/></linearGradient><linearGradient id="C" x1="84" y1="4" x2="84" y2="52" gradientUnits="userSpaceOnUse"><stop stop-color="#277dff"/><stop offset=".395" stop-color="#154cb7"/><stop offset=".78" stop-color="#061072"/><stop offset="1" stop-color="#02408a"/></linearGradient><linearGradient id="D" x1="84" y1="7" x2="84" y2="35" gradientUnits="userSpaceOnUse"><stop stop-color="#fff"/><stop offset="1" stop-color="#fff" stop-opacity="0"/></linearGradient></defs></svg>
